X:53
T:Sackett's Harbor
K:Am
M:4/4
L:1/8
Z:abc-transcription Josh Larios <hades@elsewhere.org>, 2014.04.15
B:Sarah Comer, Dusty Strings dance band class.
|:"Am"EGABA2AB | cBAG"Em"B2E2 | "G"G3G GABc | dcBc dcBA |
"Am"EGABA2AB | cBAG"Em"B2E2 | "C"cdcA "G"BcBG |1 "Am"A2AAA4 :|2 "Am"A2AAA2 ||
|: cd | "C"edcde2g2 | "Am"edcBA2Bc | "G"dcBcd2g2 | dcBAG2cd |
"C"edcde2g2 | "Am"edcBA2AB | "C"cdcA "G"BcBG | "Am"A2AAA2 :|

